X:652
T:Engelska från Eskilsminne
C:Stig Persson
R:Engelska
Z:Patrik Månsson, Röstånga
O:Helsingborg, Skåne
S:Från CD Folkmusik runt Kärnan
M:2/4
L:1/16
K:D

|: (D2F2) z2 F2 | FGFE FED2 | (DF) z2 F2 | FGFE D4 :| |: d2d2 B2B2 | ABAG FED2 |
E2EE EFGA | B2AG F2D2 | d2d2 B2B2 | ABAG FED2 | E2EE EFGF | E2DC D4 :|


(:musicend:)

[[!Ackord]]
(:music:)
